static/logos/attio-wordmark-color.svg

<svg width="100" height="25" viewBox="0 0 100 25" fill="none" xmlns="http://www.w3.org/2000/svg">
<g clip-path="url(#clip0_1_3465)">
<path fill-rule="evenodd" clip-rule="evenodd" d="M79.9486 4.36069C79.4451 4.86487 78.84 5.11697 78.1331 5.11697C77.4476 5.11697 76.8532 4.86487 76.3497 4.36069C75.8465 3.85651 75.5947 3.26113 75.5947 2.57457C75.5947 1.88803 75.8465 1.28729 76.3497 0.772374C76.8532 0.257457 77.4476 0 78.1331 0C78.84 0 79.4451 0.257457 79.9486 0.772374C80.452 1.28729 80.7038 1.88803 80.7038 2.57457C80.7038 3.26113 80.452 3.85651 79.9486 4.36069ZM61.6102 23.139C58.804 23.4607 55.8991 23.1979 54.7102 22.3506C53.5215 21.5031 52.9271 19.9637 52.9271 17.7324V11.0385H50.1317V7.04792H52.9271V2.57457L57.0719 2.5424V7.04792H60.7028V11.0385H57.0719V17.7324C57.0719 18.2902 57.2111 18.6979 57.4897 18.9553C57.7682 19.2128 58.1751 19.3576 58.7107 19.3898C59.2463 19.422 60.8176 19.4166 61.6102 19.3737V23.139ZM38.6596 23.5896C40.9088 23.5896 42.6546 22.8065 43.8971 21.2403V23.139H48.0421V7.04792H43.8971V8.94667C42.6546 7.38046 40.9088 6.59737 38.6596 6.59737C36.5176 6.59737 34.6753 7.42337 33.1331 9.0754C31.6121 10.7274 30.8516 12.7334 30.8516 15.0935C30.8516 17.475 31.6121 19.4917 33.1331 21.1437C34.6753 22.7743 36.5176 23.5896 38.6596 23.5896ZM39.4308 19.6312C38.1456 19.6312 37.0853 19.2128 36.2497 18.3761C35.4144 17.5179 34.9966 16.4237 34.9966 15.0935C34.9966 13.7633 35.4144 12.6798 36.2497 11.843C37.0853 10.9849 38.1456 10.5558 39.4308 10.5558C40.716 10.5558 41.7763 10.9849 42.6118 11.843C43.4687 12.6798 43.8971 13.7633 43.8971 15.0935C43.8971 16.4237 43.4687 17.5179 42.6118 18.3761C41.7763 19.2128 40.716 19.6312 39.4308 19.6312ZM66.9031 22.3506C68.092 23.1979 70.9968 23.4607 73.8031 23.139V19.3737C73.0105 19.4166 71.4391 19.422 70.9035 19.3898C70.368 19.3576 69.961 19.2128 69.6825 18.9553C69.404 18.6979 69.2647 18.2902 69.2647 17.7324V11.0385H72.8957V7.04792H69.2647V2.5424L65.1199 2.57457V7.04792H62.3243V11.0385H65.1199V17.7324C65.1199 19.9637 65.7144 21.5031 66.9031 22.3506ZM80.2218 23.139V7.0479H76.0767V23.139H80.2218ZM91.2911 23.5896C93.6901 23.5896 95.7038 22.7743 97.3317 21.1437C98.9811 19.4917 99.8058 17.475 99.8058 15.0935C99.8058 12.7334 98.9811 10.7274 97.3317 9.0754C95.6823 7.42337 93.6687 6.59737 91.2911 6.59737C88.9132 6.59737 86.8996 7.42337 85.2502 9.0754C83.6222 10.706 82.8081 12.712 82.8081 15.0935C82.8081 17.4964 83.6222 19.5132 85.2502 21.1437C86.8781 22.7743 88.8917 23.5896 91.2911 23.5896ZM91.2911 19.5346C90.0486 19.5346 89.0095 19.1163 88.1742 18.2795C87.3601 17.4213 86.9532 16.3593 86.9532 15.0935C86.9532 13.8276 87.3601 12.7656 88.1742 11.9074C89.0095 11.0707 90.0486 10.6523 91.2911 10.6523C92.5333 10.6523 93.5723 11.0707 94.4077 11.9074C95.243 12.7442 95.6608 13.8062 95.6608 15.0935C95.6608 16.3808 95.243 17.4428 94.4077 18.2795C93.5723 19.1163 92.5333 19.5346 91.2911 19.5346Z" fill="black"/>
<path d="M5.44374 0.914551C2.43725 0.914551 0 3.35181 0 6.35832C0 9.36481 2.43728 11.8021 5.44376 11.8021C8.45025 11.8021 10.8875 9.36479 10.8875 6.3583C10.8875 3.35179 8.45023 0.914551 5.44374 0.914551Z" fill="#DF3F40"/>
<path fill-rule="evenodd" clip-rule="evenodd" d="M12.7031 6.3583C12.7031 3.35179 15.1404 0.914551 18.1469 0.914551C21.1534 0.914551 23.5907 3.35179 23.5907 6.35828V11.7479C23.5907 11.7778 23.5664 11.802 23.5364 11.802H18.1469C15.1404 11.802 12.7031 9.36479 12.7031 6.3583Z" fill="#00BCA6"/>
<path d="M0 19.0603C0 16.0538 2.43725 13.6166 5.44374 13.6166C8.45025 13.6166 10.8875 16.0538 10.8875 19.0603V24.4498C10.8875 24.4799 10.8632 24.5041 10.8333 24.5041H5.44374C2.43725 24.5041 0 22.0668 0 19.0603Z" fill="#967DB8"/>
<path d="M12.7031 19.0603C12.7031 16.0538 15.1404 13.6166 18.1469 13.6166C21.1534 13.6166 23.5907 16.0538 23.5907 19.0603V24.4498C23.5907 24.4799 23.5664 24.5041 23.5364 24.5041H12.7573C12.7274 24.5041 12.7031 24.4799 12.7031 24.4498V19.0603Z" fill="#EDC500"/>
</g>
<defs>
<clipPath id="clip0_1_3465">
<rect width="100" height="24.7113" fill="white"/>
</clipPath>
</defs>
</svg>

<svg xmlns="http://www.w3.org/2000/svg" width="256" height="64" fill="none" viewBox="0 0 100 25"><g clip-path="url(#a)"><path fill="#000" fill-rule="evenodd" d="M79.949 4.36a2.474 2.474 0 0 1-1.816.757c-.685 0-1.28-.252-1.783-.756-.503-.504-.755-1.1-.755-1.786 0-.687.252-1.288.755-1.803C76.853.257 77.448 0 78.133 0c.707 0 1.312.257 1.816.772.503.515.755 1.116.755 1.803 0 .686-.252 1.282-.755 1.786ZM61.61 23.14c-2.806.322-5.71.059-6.9-.788-1.188-.848-1.783-2.387-1.783-4.619V11.04h-2.795V7.048h2.795V2.575l4.145-.033v4.506h3.63v3.99h-3.63v6.694c0 .558.14.966.418 1.223.278.258.685.403 1.22.435.536.032 2.108.027 2.9-.016v3.765Zm-22.95.45c2.249 0 3.995-.782 5.237-2.349v1.899h4.145V7.048h-4.145v1.899c-1.242-1.567-2.988-2.35-5.237-2.35-2.142 0-3.985.826-5.527 2.478-1.52 1.652-2.281 3.658-2.281 6.019 0 2.381.76 4.398 2.281 6.05 1.542 1.63 3.385 2.446 5.527 2.446Zm.77-3.958c-1.284 0-2.345-.418-3.18-1.255-.836-.858-1.253-1.952-1.253-3.283 0-1.33.417-2.413 1.253-3.25.835-.858 1.896-1.287 3.18-1.287 1.286 0 2.346.429 3.182 1.287.857.837 1.285 1.92 1.285 3.25s-.428 2.425-1.285 3.283c-.836.837-1.896 1.255-3.181 1.255Zm27.473 2.72c1.189.847 4.094 1.11 6.9.788v-3.765c-.793.043-2.364.048-2.9.016-.535-.032-.942-.177-1.22-.435-.279-.257-.418-.665-.418-1.223V11.04h3.63V7.048h-3.63V2.542l-4.145.033v4.473h-2.796v3.99h2.796v6.694c0 2.232.594 3.771 1.783 4.619Zm13.319.788V7.048h-4.145v16.091h4.145Zm11.07.45c2.398 0 4.412-.815 6.04-2.445 1.65-1.652 2.474-3.669 2.474-6.05 0-2.36-.825-4.367-2.474-6.019-1.65-1.652-3.663-2.478-6.04-2.478-2.379 0-4.392.826-6.042 2.478-1.628 1.631-2.442 3.637-2.442 6.019 0 2.402.814 4.42 2.442 6.05 1.628 1.63 3.642 2.446 6.041 2.446Zm0-4.054c-1.243 0-2.282-.419-3.118-1.256-.814-.858-1.22-1.92-1.22-3.185 0-1.266.406-2.328 1.22-3.187.835-.836 1.875-1.255 3.117-1.255s2.281.419 3.117 1.255c.835.837 1.253 1.9 1.253 3.187s-.418 2.349-1.253 3.185c-.836.837-1.875 1.256-3.117 1.256Z" clip-rule="evenodd"/><path fill="#DF3F40" d="M5.444.915a5.444 5.444 0 1 0 0 10.887 5.444 5.444 0 0 0 0-10.887Z"/><path fill="#00BCA6" fill-rule="evenodd" d="M12.703 6.358a5.444 5.444 0 0 1 10.888 0v5.39c0 .03-.025.054-.055.054h-5.39a5.444 5.444 0 0 1-5.443-5.444Z" clip-rule="evenodd"/><path fill="#967DB8" d="M0 19.06a5.444 5.444 0 0 1 10.887 0v5.39c0 .03-.024.054-.054.054h-5.39A5.444 5.444 0 0 1 0 19.06Z"/><path fill="#EDC500" d="M12.703 19.06a5.444 5.444 0 0 1 10.888 0v5.39c0 .03-.025.054-.055.054H12.757a.054.054 0 0 1-.054-.054v-5.39Z"/></g><defs><clipPath id="a"><path fill="#fff" d="M0 0h100v24.711H0z"/></clipPath></defs></svg>
